X:1
T:E minor Daniel Belknap, 1797
T:Isaac Watts, 1706 The Song of Angels Above 86. 86. (C. M.)
T:Pine-Hill
T:Transcribed from The Harmonist's Companion, 1797.
%%score [ 1 2 3 4 ]
L:1/8
M:4/4
K:G
V:1 treble nm="Treble" snm="Tr"
V:2 treble nm="Counter" snm="C"
V:3 treble-8 nm="Tenor" snm="T"
V:4 bass nm="Bass" snm="B"
V:1
 B4 B2 B2 | B6 A2 | (G>B^A>B G2) F2 | G8 | (d3 c) d2 e2 | (d2 B2 G2) A2 | B8 |: B4 B2 B2 | B6 c2 | %9
w: 1.~In the full|choir a|bro- * * * * ken|string|Groans * with a|strange * * sur-|prise:|The rest in|si- lence|
w: 2.~Ser- aph and|saint, with|drop- * * * * ping|wings,|Cease * their har-|mo- * * nious|breath:|No bloo- ming|trees nor|
 (B3 c d2) d2 | e6 d2 | (B3 A G2) dc | B4 B4 | B8 :| %14
w: mourn * * their|King, Who|bleeds, * * and *|loves, and|dies.|
w: bab- * * bling|springs While|Je- * * sus *|sleeps in|death.|
V:2
 E4 E2 ^D2 | (E4 D2) F2 | (G2 D4) F2 | E8 | (D3 G) G2 G2 | (F2 E2) D4 | (E4 F4) |: F4 E2 F2 | %8
w: 3.~Then all at|once * to|li- * ving|strains|They * sum- mon|eve- * ry|chord: *|Break up the|
w: 4.~In aw- ful|state * the|con- * quering|God|A- * scends his|shi- * ning|throne; *|While tune- ful|
 (G3 F E2) A2 | (G4 D2) D2 | G6 F2 | G6 F2 | E4 ^D4 | E8 :| %14
w: tomb, * * and|burst * his|chains, And|show their|ri- sing|Lord.|
w: an- * * gels|sound * a-|broad the|vic- tories|he has|won.|
V:3
 B4 G2 F2 | G6 A2 | (B>G^A>e d2) B2 | B8 | (B3 c) B2 G2 | (d2 e2 B2) F2 | (G4 F4) |: F4 G2 F2 | %8
w: 5.~Now let me|rise and|join * * * * their|song,|And * be an|an- * * gel|too: *|My heart, my|
w: 6.~I would be-|gin the|mu- * * * * sic|here,|And * so my|soul * * should|rise; *|O for some|
 (E3 F G2) A2 | (d3 c B2) ^A2 | B6 B2 | (B>c d2 e2) BA | G4 F4 | E8 :| %14
w: hand, * * my|ear, * * my|tongue, Here's|joy- * * * ful *|work for|you!|
w: heaven- * * ly|notes, * * to|bear My|spi- * * * rit *|to the|skies!|
V:4
"^___________________________________________\nEdited by B. C. Johnston, 2015.  Measure 3, Tenor: A changed to A-sharp (like Treble); last note changed from C to B." E,4 E,2 B,,2 | %1
w: 7.~There, ye that|
w: 8.~I am con-|
 (E,3 F, G,2) F,2 | (E,2 D,2 B,,2) B,,2 | E,8 | (G,3 A,) G,2 E,2 | (B,,2 E,2 G,2) F,2 | %6
w: love * * my|Sav- * * ior|sit;|There * I would|fain * * have|
w: fined * * to|earth * * no|more,|But * mount in|haste * * a-|
 (E,4 B,,4) |: B,,4 E,2 ^D,2 | E,6 F,2 | (G,3 A, G,2) F,2 | E,6 B,2 | (G,3 F, E,2) G,A, | %12
w: place *|A- mong your|thrones, or|at * * your|feet, So|I * * might *|
w: bove, *|To bless the|God that|I * * a-|dore, And|sing * * the *|
 B,4 B,,4 | E,8 :| %14
w: see his|face.|
w: Man I|love.|

